X:1
T:100 studi facili e progressivi
T:Marcel MOYSE
T:da Cramer
L:1/8
Q:1/4=100
M:4/4
K:C
V:1 treble nm="Flute" snm="Fl."
V:1
"^Allegro""^1"!f! c2 (G/c/B/c/ A/d/c/d/ B/e/d/e/ | c/e/c/e/) (G/c/B/c/ A/d/c/d/ B/e/d/e/ | %2
 !breath!c/)(e/d/e/ f/e/d/c/ B/d/c/d/ e/d/c/B/) | (A/c/B/c/ d/c/B/A/ G/A/B/G/ A/c/B/d/ | %4
 !breath!c2) (g/c'/b/c'/ a/d'/c'/d'/ b/e'/d'/e'/ | %5
 c'/e'/c'/e'/) (g/c'/b/c'/ a/d'/c'/d'/ b/e'/d'/e'/ | %6
 !breath!c'/)(e'/d'/c'/ b/a/g/f/ e/c'/b/a/ g/f/e/d/ | c/e/d/c/ B/A/G/F/ E/c/B/A/ G/F/E/D/) | %8
 (D4 C2) z2 |]"^Allegro""^2"!mf! (c/d/e/f/ g/c/d/e/ d/e/f/g/ a/d/e/f/ | %10
 B/c/d/e/ f/B/c/"_cresc."d/ c/d/e/f/ g/G/A/!breath!B/) |!f! (c/d/e/f/ g/c/d/e/ d/e/f/g/ a/d/e/f/ | %12
 B/c/d/e/ f/g/a/b/ !breath!c'/)"_dim."(e/f/^f/ a/g/=f/e/) | %13
!p! (d/e/^f/g/ e/f/g/a/ d/e/f/g/ e/f/g/a/ | d/^f/g/b/ a/g/f/a/ g/d'/c'/b/ a/g/f/e/ | %15
 !breath!d/)(b/a/g/ ^f/e/d/c/ B/g/f/e/ d/c/B/A/ | G/A/B/c/ A/B/c/d/ B/=f/d/B/ G/F/D/E/) | %17
 (D4 C2) z2 |]"^Moderato""^3"!p![Q:1/4=66] (C/G/E/F/ G/E/G/c/ D/A/F/G/ A/F/A/d/ | %19
 c/B/A/G/"_cresc." g/f/e/d/ c/c'/b/a/ g/f/e/!breath!d/) | %20
!f! (c/g/e/f/ g/e/g/c'/ d/a/f/g/ a/f/a/d'/ | c'/b/a/g/ g/f/e/d/"_dim." c/e/g/e/ c/B/c/!breath!e/) | %22
!p! (d/B/G/e/ d/c/A/e/!<(! d/B/G/^F/ G/A/B/c/!<)! | %23
 !>!d/B/G/e/ d/c/A/e/!<(! d/B/G/A/ B/G/c/!breath!A/)!<)! | %24
 (!>!d/e/d/c/ B/d/e/f/ g/^f/g/e/ c/e/a/g/ | =f/d/f/d/ e/c/e/c/!>(! d/c/B/A/ G/F/E/D/)!>)! | %26
!>(! (D4 C2) z2!>)! |]"^Allegro"!mf!"^4"[Q:1/4=100] (!>!g/a/b/c'/ b/a/g/f/ !>!e/f/g/a/ g/f/e/d/ | %28
 !>!c/d/e/f/ e/d/c/B/ !>!A/B/c/d/ c/B/A/!breath!B/) | (!>!c/d/e/d/ c/B/A/B/ !>!c/d/e/d/ c/B/c/d/ | %30
 !>!e/)(f/g/f/ e/d/c/d/ !>!e/f/g/f/ e/d/c/!breath!d/) | (e/d/e/f/ d).g (e/d/e/f/) d!breath!.g | %32
 (e/d/e/c/ f/e/"_cresc."f/c/ g/a/g/f/ e/d/e/f/ | g/e/f/g/ a/f/g/a/ b/g/a/b/ c'/a/b/c'/ | %34
 d'/b/c'/d'/ e'/d'/c'/b/ a) z .b z | (c'4 c'2) z2 |] %36
[M:3/4]"^Allegro"!mf!"^5" (E/F/G/F/ E/F/G/A/ B/c/d/e/) | (F/G/A/"_cresc."G/ F/G/A/B/ c/d/e/f/) | %38
 (G/c/B/A/ G/A/B/c/ d/e/f/!breath!g/) | (A/a/g/a/ f/a/e/a/ d/e/f/d/) | %40
 (g/a/g/f/ e/d/e/f/ g/e/a/g/ | f/g/f/e/ d/f/e/g/ f/d/g/!breath!f/) | (e/f/e/d/ c/B/c/d/ e/c/f/e/ | %43
 d/e/d/c/ B/c/B/A/ G/A/G/F/) |!>(! (E4 !fermata!c2)!>)! |] %45
[M:4/4]"^Moderato"!f![Q:1/4=66]"^6" (!>!e'/d'/c'/b/ a/g/f/e/ f/e/d/c/ B).c | %46
 (!>!f'/e'/d'/c'/ b/a/g/f/ g/f/e/d/ ^c)!breath!.d | (!>!g'/f'/e'/d'/ c'/b/a/g/ a/g/f/e/ d).c | %48
 (!>!a/g/f/e/ f/e/d/c/ d/c/B/c/ d)!breath!.B | (!>!e/E/F/G/ A/G/A/B/ c/B/c/d/ e).c | %50
 (!>!f/F/G/A/ B/A/B/c/ d/c/d/e/ f)!breath!.d | (G/A/B/c/ d/e/f/g/) (A/B/c/d/ e/f/g/a/) | %52
 (!>!g/a/b/a/) (!>!g/b/c'/d'/) (!>!g/c'/d'/e'/) (!>!g/d'/e'/d'/) |!>(! (c'4 c2) z2!>)! | %54
"^Moderato"!f!"^7" (e/e'/d'/c'/ b/a/g/f/ e2) .a2 | (d/d'/c'/b/ a/g/f/e/ d2) .g2 | %56
 (c'/b/a/g/ ^f/e/d/c/ B/c/d/e/ =f/g/a/b/) | !breath!c'4 (d/e/f/g/ a/b/c'/d'/) | %58
 e'2 (B/c/d/e/) f2 (c/d/e/f/) | g>(g c/d/e/c/) f>(f b/a/g/f/) | (e/f/g/a/) d z (c/d/e/f/) B z | %61
 (A/B/c/d/) B>(B c/d/e/f/ d/e/f/g/) |!>(! (d4 c2) z2!>)! |] z8 | z8 | z8 | z8 | z8 | z8 | z8 | z8 | %71
 z8 | z8 | z8 | z8 | z8 | z8 | z8 | z8 |] %79

